!!!COM:	Martini, Johannes
!!!CDT:	~1440///-~1497//
!!!OTL:	Judica me deus
!!!AGN:	Motet
!!!SCT:	Mar2057
!!!SCA:	Mar2057
!!!voices:	3
**kern	**kern	**kern
*staff3	*staff2	*staff1
*Ivox	*Ivox	*Ivox
*I"Tenor	*I"Faulx bourdon	*I"Superius
*I'T	*I'Fb	*I'S
*>[A,B,C,D,E,F]	*>[A,B,C,D,E,F]	*>[A,B,C,D,E,F]
*>A	*>A	*>A
*clefGv2	*clefGv2	*clefG2
*k[]	*k[]	*k[]
*M2/1	*M2/1	*M2/1
*met(C)	*met(C)	*met(C)
!!section: Ab homine
!!!OMD: Ab homine
=1-	=1-	=1-
!!LO:TX:Z=8:t=Choir 1
1A	1e	1a
2c\	2e\	2a/
2c\	2e\	2a/
=2	=2	=2
1c	1e	1a
2c\	2e\	2a/
2c\	2e\	2a/
=3	=3	=3
1c	1e	1a
1B	1d	1g
=4	=4	=4
2c\	2e\	2a/
2d\	2f\	2b\
2B\	2d\	2g/
2c\	[2e\	[2a/
=5	=5	=5
1A	2e\]	2a/]
.	4d\	4g/
.	4c\	4f/
2G/	2B\	2e/
[2A/	[2c\	[2f/
=6	=6	=6
4A/]	2c\]	2f/]
4G/	.	.
2E/	1B	1e
1F	.	.
.	2A/	2d/
=7	=7	=7
0El	0Bl	0el
=8||	=8||	=8||
*>B	*>B	*>B
!!LO:TX:Z=8:t=Choir 2
!!section: Quia tu es
!!!OMD: Quia tu es
1A	0r	1a
1B	.	1g
=9	=9	=9
1c	0r	1a
2c\	.	2a/
2c\	.	2a/
=10	=10	=10
1c	0r	1a
1c	.	1a
=11	=11	=11
1B	0r	1g
1A	.	1f
=12	=12	=12
2.G/	0r	2.e/
4A/	.	4f/
2B\	.	2g/
2c\	.	[2a/
=13	=13	=13
1B	0r	2a/]
.	.	2g#i/
1A	.	1a
=14	=14	=14
1r	0r	1r
2c\	.	2a/
2c\	.	2a/
=15	=15	=15
1c	0r	1a
2c\	.	2a/
2c\	.	2a/
=16	=16	=16
1c	0r	1a
1c	.	1a
=17	=17	=17
1c	0r	2r
.	.	2a/
2c\	.	2a/
2c\	.	2a/
=18	=18	=18
1c	0r	1a
1c	.	1a
=19	=19	=19
2c\	0r	2a/
2c\	.	2a/
1c	.	1a
=20	=20	=20
1B	0r	1g
2c\	.	2a/
2d\	.	2b\
=21	=21	=21
2B\	0r	2g/
1c	.	1a
4B\	.	4g/
4A/	.	4f/
=22	=22	=22
2G/	0r	2e/
1A	.	1f
2G/	.	[2e/
=23	=23	=23
1F	0r	2e/]
.	.	2d/
1El	.	1el
=24||	=24||	=24||
*>C	*>C	*>C
!!LO:TX:Z=8:t=Choir 1
!!section: Emitte lucem
!!!OMD: Emitte lucem
2c\	2e\	2a/
2c\	2e\	2a/
1c	1e	1a
=25	=25	=25
2c\	2e\	2a/
2c\	2e\	2a/
1c	1e	1a
=26	=26	=26
1A	1e	1a
1c	1e	1a
=27	=27	=27
2c\	2e\	2a/
2c\	2e\	2a/
1B	1d	1g
=28	=28	=28
2c\	2e\	2a/
1d	1f	1b
2A/	[2e\	[2a/
=29	=29	=29
1B	2e\]	2a/]
.	2d\	2g#i/
1A	1e	1a
=30	=30	=30
1r	1r	1r
2c\	2e\	2a/
2c\	2e\	2a/
=31	=31	=31
2c\	2e\	2a/
2c\	2e\	2a/
2c\	2e\	2a/
2c\	2e\	2a/
=32	=32	=32
1A	1e	1a
2r	2r	2r
2c\	2e\	2a/
=33	=33	=33
1c	1e	1a
2c\	2e\	2a/
2c\	2e\	2a/
=34	=34	=34
2c\	2e\	2a/
2c\	2e\	2a/
1c	1e	1a
=35	=35	=35
1A	1e	1a
2r	1d	1g
2B\	.	.
=36	=36	=36
2c\	2e\	2a/
2d\	2f\	2b\
2B\	2d\	2g/
2c\	2e\	2a/
=37	=37	=37
1A	1c	1f
2G/	2B\	2e/
[2A/	[2c\	[2f/
=38	=38	=38
4A/]	2c\]	2f/]
4G/	.	.
2E/	1B	1e
1F	.	.
.	2A/	2d/
=39	=39	=39
0El	0Bl	0el
=40||	=40||	=40||
*>D	*>D	*>D
!!section: Et introibo
!!!OMD: Et introibo
!!LO:TX:Z=8:t=Choir 2
1A	0r	1a
1B	.	1g
=41	=41	=41
1c	0r	1a
2c\	.	2a/
2c\	.	2a/
=42	=42	=42
1c	0r	1a
1c	.	1a
=43	=43	=43
1B	0r	1g
1A	.	1f
=44	=44	=44
2.G/	0r	2.e/
4A/	.	4f/
2B\	.	2g/
2c\	.	[2a/
=45	=45	=45
1B	0r	2a/]
.	.	2g#i/
1A	.	1a
=46	=46	=46
1r	0r	1r
2c\	.	2a/
2c\	.	2a/
=47	=47	=47
1c	0r	1a
2c\	.	2a/
2c\	.	2a/
=48	=48	=48
2c\	0r	2a/
2c\	.	2a/
1c	.	1a
=49	=49	=49
1B	0r	1g
1A	.	1f
=50	=50	=50
2B\	0r	2g/
1c	.	1a
4B\	.	4g/
4A/	.	4f/
=51	=51	=51
2G/	0r	2e/
1A	.	1f
2G/	.	[2e/
=52	=52	=52
1F	0r	2e/]
.	.	2d/
1El	.	1el
=53||	=53||	=53||
*>E	*>E	*>E
!!section: Confitebor tibi
!!!OMD: Confitebor tibi
!!LO:TX:Z=8:t=Choir 1
1c	1e	1a
2c\	2e\	2a/
2c\	2e\	2a/
=54	=54	=54
2c\	2e\	2a/
2c\	2e\	2a/
1A	1e	1a
=55	=55	=55
1c	1e	1a
2c\	2e\	2a/
2c\	2e\	2a/
=56	=56	=56
1c	1e	1a
1B	1d	1g
=57	=57	=57
2c\	2e\	2a/
1d	1f	1b
2c\	[2e\	[2a/
=58	=58	=58
1B	2e\]	2a/]
.	2d\	2g#i/
1A	1e	1a
=59	=59	=59
1r	1r	1r
2c\	2e\	2a/
2c\	2e\	2a/
=60	=60	=60
2c\	2e\	2a/
2c\	2e\	2a/
1c	1e	1a
=61	=61	=61
1c	1e	1a
2B\	2d\	2g/
2A/	2c\	2f/
=62	=62	=62
1B	1d	1g
1A	1c	1f
=63	=63	=63
1B	1d	1g
2c\	2e\	2a/
2d\	2f\	2b\
=64	=64	=64
2B\	2d\	2g/
2c\	2e\	2a/
1A	1c	1f
=65	=65	=65
2G/	2B\	2e/
2.A/	1c	1f
4G/	.	.
2E/	[2B\	[2e/
=66	=66	=66
1F	2B\]	2e/]
.	2A/	2d/
1El	1Bl	1el
=67||	=67||	=67||
*>F	*>F	*>F
!!LO:TX:Z=8:t=Choir 2
!!section: Spera in Deo
!!!OMD: Spera in Deo
1A	0r	1a
1B	.	1g
=68	=68	=68
1c	0r	1a
2c\	.	2a/
2c\	.	2a/
=69	=69	=69
1c	0r	1a
2c\	.	2a/
2c\	.	2a/
=70	=70	=70
2c\	0r	2a/
2c\	.	2a/
1c	.	1a
=71	=71	=71
1B	0r	1g
1A	.	1f
=72	=72	=72
2.G/	0r	2.e/
4A/	.	4f/
2B\	.	2g/
2c\	.	[2a/
=73	=73	=73
1B	0r	2a/]
.	.	2g#i/
1A	.	1a
=74	=74	=74
1r	0r	1r
1c	.	1a
=75	=75	=75
2c\	0r	2a/
2c\	.	2a/
1c	.	1a
=76	=76	=76
2c\	0r	2a/
2c\	.	2a/
1c	.	1a
=77	=77	=77
1c	0r	1a
2.B\	.	2.g/
4A/	.	4f/
=78	=78	=78
2B\	0r	2g/
1c	.	1a
2B\	.	[2g/
=79	=79	=79
1A	0r	2g/]
.	.	2f#i/
1Gl	.	1gl
==	==	==
*-	*-	*-
!!!RDF**kern: l=long note in original notation
!!!RDF**kern: i=editorial accidental
!!!ENC:	Chris Gage 03-26-2014
!!!END:	2014/06/20/
!!!EED:	Jesse Rodin
!!!EEV:	2014/10/18/
!!!ONB:	Translated from MusicXML and edited on 2014/10/18/ by Craig Sapp
!!muse2ps: C^@{COM}^i2I150v85,85,150Q16
